wp-content/plugins/yith-woocommerce-product-add-ons/assets/img/addons-icons/file.svg

<?xml version="1.0" encoding="UTF-8"?>
<svg width="36px" height="33px" viewBox="0 0 36 33" version="1.1" xmlns="http://www.w3.org/2000/svg" xmlns:xlink="http://www.w3.org/1999/xlink">
    <title>Risorsa 1</title>
    <g id="Page-1" stroke="none" stroke-width="1" fill="none" fill-rule="evenodd">
        <g id="Add-option---color-swatch" transform="translate(-469.000000, -563.000000)" fill="#505050" fill-rule="nonzero">
            <g id="upload" transform="translate(425.000000, 540.000000)">
                <g id="Risorsa-1" transform="translate(44.000000, 23.000000)">
                    <path d="M26.7390735,33 L26.5705541,33 C24.0713779,33.0046113 21.6743055,32.0068847 19.9140353,30.2293603 L2.12757201,12.42369 C0.292651029,10.5852041 -0.423967206,7.90555241 0.247660465,5.39413389 C0.919288136,2.88271536 2.87712549,0.921074189 5.38367413,0.248141636 C7.89022277,-0.424790917 10.5646783,0.29321961 12.3995993,2.1317056 L29.9103034,19.6764307 C30.8872569,20.6277983 31.4396407,21.9339568 31.4422985,23.2989636 C31.4566759,24.6495714 30.929646,25.9494963 29.9793039,26.9074556 C29.0289619,27.8654149 27.7347657,28.4013136 26.3867147,28.3950693 L26.287135,28.3950693 C24.9452333,28.3917728 23.6591739,27.8564832 22.7099264,26.9061468 L12.7519581,16.9288316 L13.8320147,15.8466766 L23.7899829,25.8239919 C24.452295,26.4874939 25.3505526,26.8601945 26.287135,26.8600977 L26.3867147,26.8600977 C28.3098389,26.8558767 29.8677908,25.2948979 29.8720035,23.3680373 C29.8902564,22.3930376 29.5145742,21.4520073 28.8302469,20.7585857 L11.3195427,3.21386056 C9.06601133,1.05123011 5.50060413,1.08972424 3.29410765,3.30050765 C1.08761116,5.51129107 1.04919167,9.08362537 3.20762857,11.341535 L20.9787719,29.162555 C22.4612557,30.6470944 24.4746166,31.4761105 26.5705541,31.4650124 L26.7390735,31.4650124 C31.0076356,31.4650124 34.4679889,27.9979361 34.4679889,23.7210808 L34.4679889,23.5522339 C34.4790655,21.4522243 33.6516569,19.4349518 32.1699962,17.9495877 L21.9822287,7.75737642 L23.0622853,6.67522146 L33.2347328,16.8827824 C35.0088105,18.6464726 36.0046023,21.0482022 36,23.5522339 L36,23.7210808 C36,28.8456775 31.8537332,33 26.7390735,33 Z" id="Path"></path>
                </g>
            </g>
        </g>
    </g>
</svg>

<?xml version="1.0" encoding="utf-8"?>
<!-- Generator: Adobe Illustrator 16.0.0, SVG Export Plug-In . SVG Version: 6.00 Build 0)  -->
<!DOCTYPE svg PUBLIC "-//W3C//DTD SVG 1.1//EN" "http://www.w3.org/Graphics/SVG/1.1/DTD/svg11.dtd">
<svg version="1.1" id="Layer_1" xmlns="http://www.w3.org/2000/svg" xmlns:xlink="http://www.w3.org/1999/xlink" x="0px" y="0px"
	 width="36px" height="33px" viewBox="0 0 36 33" enable-background="new 0 0 36 33" xml:space="preserve">
<title>Risorsa 1</title>
<path fill="#505050" d="M36,23.553v0.168C36,28.846,31.854,33,26.739,33H26.57c-2.499,0.005-4.896-0.993-6.656-2.771L2.127,12.424
	c-1.835-1.839-2.551-4.518-1.88-7.03c0.672-2.511,2.629-4.473,5.136-5.146c2.506-0.673,5.181,0.045,7.016,1.884L29.91,19.676
	c0.977,0.952,1.529,2.258,1.532,3.623c0.015,1.351-0.513,2.65-1.463,3.608s-2.245,1.494-3.593,1.487h-0.1
	c-1.342-0.003-2.628-0.538-3.577-1.488l-9.958-9.978l1.08-1.082l9.958,9.978c0.662,0.663,1.561,1.036,2.497,1.036h0.1
	c1.924-0.005,3.48-1.565,3.485-3.492c0.019-0.976-0.357-1.916-1.042-2.609L11.319,3.214C9.066,1.051,5.5,1.09,3.294,3.301
	c-2.207,2.21-2.245,5.783-0.086,8.041l17.771,17.82c1.482,1.484,3.496,2.314,5.592,2.303h0.169c4.269,0,7.729-3.467,7.729-7.744
	v-0.168c0.011-2.101-0.815-4.117-2.298-5.604L21.982,7.757l1.08-1.082l10.172,10.208C35.009,18.646,36.004,21.049,36,23.553z"/>
</svg>
